X: 10083
T: Did You Wash Your Father's Shirt
R: reel
M: 4/4
K: Dmajor
|fdec dcAA|fdec d3z|f2ed cAAB|cAGE D3z|
fdec dcAA|fgec d2de|f2ec cAAB|cAGE D3z||
FG AB =cAG2|Addc d2ef|fdec cAAB|cAGE D3z|
(3EFG AB =cAG2|Addc d2ef|fdec cAAB|cAGE D3z|

